X:1205
T:the Parting Lovers
A:Wyresdale, Lancashire
B:E and J Winder, 1835-41
L:1/8
M:6/8
O:England
Z:Richard Robinson 
%%TUNEURL: http://www.leeds.ac.uk/music/Info/RRTuneBk/gettune/000005c1.html
%%ID:000005c1
K:G
G2B A2c | B2d c2e | def gfe | dcB AGF | \
G2B A2c | B2d c2e | dcB AGF | G3 A,3 ::
g2e f2d | g2e f2d | gfe agf | efd ^cBA |\
g2e f2d |           egf edc | d3 D3 |
G2B A2c | B2d c2e | def gfe | dcB AGF |\
G2B A2c | B2d c2e | dcB AGF | G3 A,3 :|
%%newpage
%page 99
